X:41
T:Spanish Ladies (1)
B:Oxford Book of Sea Songs
Z:Digital Tradition
F://sniff.numachi.com/~rickheit/dtrad/
Q:140
M:3/4
L:1/4
K:Gm
D| G G ^F| G2(G/2A/2)| B A G| ^F D3/2 D/2|
G G ^F| G2 G/2A/2| B A G|A2 A/2A/2|
B A G| c B A| d G(G/2A/2)|(^F/2=E/2) D d/2c/2|
B A G| ^F D D|D G ^F| G2|]
%the version most-like Captain Kidd
